src/assets/icons/richtext-list-unordered.svg

<svg width="16" height="16" viewBox="0 0 16 16" fill="none" xmlns="http://www.w3.org/2000/svg">
<g clip-path="url(#clip0_8874_15345)">
<path fill-rule="evenodd" clip-rule="evenodd" d="M1.2396 0.0241939C0.929352 0.0830283 0.669452 0.220725 0.445 0.445177C0.211737 0.67844 0.0797496 0.934632 0.021833 1.26655C-0.0872631 1.89164 0.237051 2.54647 0.800338 2.83848C0.990114 2.93687 1.1348 2.98179 1.34138 3.00645C1.94879 3.07898 2.54637 2.76386 2.83863 2.21689C3.24091 1.46409 2.93628 0.528481 2.16662 0.152987C1.8908 0.0184299 1.53245 -0.0313546 1.2396 0.0241939ZM5.46661 0.604351C5.10795 0.662102 4.785 1.00028 4.73057 1.37505C4.68682 1.67637 4.77375 1.93298 4.99394 2.15253C5.16181 2.31993 5.3028 2.39099 5.5215 2.41842C5.72651 2.44412 14.9714 2.44542 15.1959 2.41977C15.5931 2.37438 15.9212 2.05722 15.9887 1.65337C16.0676 1.18166 15.7447 0.710473 15.2742 0.610776C15.168 0.58827 14.4554 0.584709 10.3588 0.586269C7.67611 0.587297 5.52315 0.595246 5.46661 0.604351ZM1.22751 6.51353C1.0258 6.55612 0.774785 6.66595 0.620788 6.77901C0.497942 6.86916 0.291627 7.0936 0.219153 7.21589C0.0676522 7.47153 0.00749598 7.6944 0.00749598 8.00007C0.00749598 8.41123 0.129057 8.72268 0.405771 9.02052C0.607424 9.23756 0.805184 9.36112 1.09813 9.45308C1.21662 9.4903 1.27281 9.49615 1.51067 9.49608C1.74788 9.496 1.805 9.49004 1.92306 9.45305C2.52682 9.26386 2.93763 8.77549 3.00684 8.16469C3.0886 7.4428 2.64442 6.77503 1.93288 6.55017C1.78765 6.50428 1.37324 6.48276 1.22751 6.51353ZM5.39511 7.11127C5.11432 7.18678 4.88042 7.40559 4.76883 7.69718C4.73452 7.7868 4.72666 7.84324 4.72666 8.00007C4.72666 8.15689 4.73452 8.21334 4.76883 8.30296C4.88202 8.59873 5.11568 8.81494 5.40301 8.88978C5.49876 8.91473 6.06265 8.91792 10.3588 8.91792C15.6699 8.91792 15.3028 8.92547 15.5157 8.812C15.654 8.73832 15.8396 8.54553 15.9085 8.40392C16.0288 8.15678 16.0288 7.84335 15.9085 7.59621C15.8396 7.45461 15.654 7.26182 15.5157 7.18813C15.3027 7.07461 15.6715 7.0821 10.3503 7.08343C6.16719 7.08447 5.48042 7.08833 5.39511 7.11127ZM1.313 12.9931C0.481622 13.0964 -0.121903 13.91 0.021833 14.7336C0.0963994 15.161 0.338566 15.5315 0.693775 15.7618C1.12489 16.0412 1.70039 16.0746 2.16662 15.8471C2.83674 15.5202 3.16715 14.7596 2.94966 14.0446C2.7403 13.3562 2.03538 12.9034 1.313 12.9931ZM5.50026 13.5814C5.31585 13.6029 5.15401 13.688 4.99394 13.8476C4.77362 14.0673 4.68558 14.3287 4.73075 14.6289C4.78821 15.0107 5.11043 15.339 5.48497 15.3974C5.64967 15.4231 15.0679 15.4231 15.2326 15.3974C15.7184 15.3217 16.0701 14.8331 15.9887 14.3468C15.9212 13.9429 15.5931 13.6258 15.1959 13.5804C15.0083 13.5589 5.68422 13.5599 5.50026 13.5814Z" fill="currentColor"/>
</g>
<defs>
<clipPath id="clip0_8874_15345">
<rect width="16" height="16" fill="white"/>
</clipPath>
</defs>
</svg>

<svg xmlns="http://www.w3.org/2000/svg" width="16" height="16" fill="none">
  <g clip-path="url(#a)">
    <path fill="currentColor" fill-rule="evenodd" d="M1.24.024a1.48 1.48 0 0 0-.795.421A1.508 1.508 0 1 0 2.167.153 1.567 1.567 0 0 0 1.24.024Zm4.227.58c-.359.058-.682.396-.736.771a.865.865 0 0 0 .263.778.814.814 0 0 0 .527.265c.206.026 9.45.027 9.675.002a.924.924 0 0 0 .793-.767.927.927 0 0 0-.715-1.042c-.106-.023-.819-.026-4.915-.025-2.683.001-4.836.01-4.892.018Zm-4.24 5.91a1.762 1.762 0 0 0-.606.265c-.123.09-.33.315-.402.437A1.41 1.41 0 0 0 .007 8c0 .411.122.723.399 1.02.201.218.4.341.692.433.119.037.175.043.413.043.237 0 .294-.006.412-.043.604-.19 1.015-.678 1.084-1.288.082-.722-.363-1.39-1.074-1.615a2.186 2.186 0 0 0-.705-.036Zm4.168.597a.948.948 0 0 0-.626.586.713.713 0 0 0-.042.303.72.72 0 0 0 .042.303.94.94 0 0 0 .634.587c.096.025.66.028 4.956.028 5.31 0 4.944.007 5.157-.106a1.12 1.12 0 0 0 .393-.408.949.949 0 0 0 0-.808 1.12 1.12 0 0 0-.393-.408c-.213-.113.155-.106-5.166-.105-4.183.001-4.87.005-4.955.028Zm-4.082 5.882c-.831.103-1.435.917-1.291 1.74.074.428.317.798.672 1.029a1.51 1.51 0 0 0 2.256-1.717 1.528 1.528 0 0 0-1.637-1.052Zm4.187.588a.841.841 0 0 0-.506.267.869.869 0 0 0-.263.78.94.94 0 0 0 .754.77c.165.025 9.583.025 9.748 0a.929.929 0 0 0 .756-1.051.924.924 0 0 0-.793-.767c-.188-.021-9.512-.02-9.696.001Z" clip-rule="evenodd"/>
  </g>
  <defs>
    <clipPath id="a">
      <path fill="#fff" d="M0 0h16v16H0z"/>
    </clipPath>
  </defs>
</svg>
